X: 23
T: The Banks of Clyde
C: Pipe tune
N:The book shows the key signature as D (f# c#), but also shows c natural accidentals in the B part.
O:Scotland
B:Keith Norman MacDonald : "The Skye collection of the best reels & strathspeys extant" : 1887
Z:Ralph Palmer
R:Strathspey
M:C
L:1/8
K:A
a | c>AA>c A>AA>d | c>AA>e a>fe>d | c>AA>c A>AA>d | B>GG>B g>Bd>B | c>AA>c A>AA>d |
c>AA>e (a/2g/2f/2e/2) a>e | c>AA>c c>ece | B>GG>B g>Bd>B || =c<eg>e a>eg>e | =c<eg>e daa>e |
[1=c<eg>e a>eg>f | e>Ag>d B>Gd>B :| [2 =c<eg>a g>ef>d | e>Ag>d BG d |]
W:From Ross's Collection


